X: 1701
T: the Men From Ulster   #2
R: Hornpipe
%S: s:2 b:12(4+4+4)
B: O'Neill's 1850 #1701
Z: "Transcribed by Bob Safranek, rjs@gsp.org"
Z: Compacted via repeats and multiple endings [JC]
M: C|
L: 1/8
K: G
(D>B,) |:\
G,>B,D>G B>GD>B, | C>EA>B \
[1,3 c>BA>c | B>dg>d e>cA>G | (3FGA (3GFE (3DED (3CB,A, :|
[2,4 c>de>f | {a}g>fg>e (3ded (3cBA |\
| G>Bd>B g2 :: B>c |\
d>g{ag}f>g e>g{ag}f>g | b>ga>f
g>ed>B |\
[1,3 (3cde (3ABc (3Bcd G>B | (3AGF (3GFE D2 B>c :|\
[2,4 c>de>f {a}g>fg>e | d>Bc>A G2 :|
